X:516
T:Marchioness of Huntly, The
R:Strathspey
C:William Marshall
B:The Athole Collection
M:C|
L:1/8
K:A
A,>CE>C D<F ~E2|Fc d/c/B/A/ G/F/E/D/| C>D E<C D<F ~E2|
F>B A/G/F/E/ A2 A:|
d|c>eA>e c>e d/c/B/A/|G>BE>B G>BE>d| c>eA>e c>e d/c/B/A/|
F>B A/G/F/E/ A2 A>d|c>eA>e c/e/f/g/ a2|Fc d/c/B/A/ G/F/E/D/|
C>DE>C D<F ~E2|F>B A/G/F/E/ A2A||
